public/logo.svg

<svg xmlns="http://www.w3.org/2000/svg" viewBox="0 0 60 60">
  <title>Planned</title>
  <g fill="none" fill-rule="evenodd">
    <path fill="#0B223C" d="M0 0h60v60H0z"/>
    <g transform="translate(16 14)">
      <path d="M18.7016589 12.5554222c0-3.39736707-2.6354008-6.00662866-6.0170207-6.00662866-2.4367777 0-4.62515085 1.32877679-5.66955598 3.05235314v5.90855112c1.04440513 1.7723662 3.18249398 3.0523532 5.66955598 3.0523532 3.3816199 0 6.0170207-2.5599739 6.0170207-6.0066288m6.8622998 0c0 6.9913873-4.9721126 12.6042121-11.3376035 12.6042121-3.0834339 0-6.01752345-1.3785623-7.21127298-3.3480794v10.8328417H.0029351V.49237926h7.01214712v2.85570015C8.20883175 1.37856236 11.1429213 0 14.2263552 0c6.3654909 0 11.3376035 5.56403501 11.3376035 12.5554222" fill="#FFF"/>
      <ellipse fill="#FE7B6C" cx="30.455691" cy="20.6386598" rx="4.47834646" ry="4.46712795"/>
    </g>
  </g>
</svg>

<?xml version="1.0" encoding="UTF-8"?>
<svg width="60px" height="60px" viewBox="0 0 60 60" version="1.1" xmlns="http://www.w3.org/2000/svg" xmlns:xlink="http://www.w3.org/1999/xlink">
    <!-- Generator: Sketch 60.1 (88133) - https://sketch.com -->
    <title>Logo</title>
    <desc>Created with Sketch.</desc>
    <g id="Admin" stroke="none" stroke-width="1" fill="none" fill-rule="evenodd">
        <g id="Logo" transform="translate(1.000000, 0.000000)">
            <rect id="Rectangle" fill="#0B223C" x="-1" y="0" width="60" height="60"></rect>
            <g id="Group" transform="translate(15.000000, 14.000000)">
                <path d="M18.7016589,12.5554222 C18.7016589,9.15805513 16.0662581,6.54879354 12.6846382,6.54879354 C10.2478605,6.54879354 8.05948735,7.87757033 7.01508222,9.60114668 L7.01508222,15.5096978 C8.05948735,17.282064 10.1975762,18.562051 12.6846382,18.562051 C16.0662581,18.562051 18.7016589,16.0020771 18.7016589,12.5554222 M25.5639587,12.5554222 C25.5639587,19.5468095 20.5918461,25.1596343 14.2263552,25.1596343 C11.1429213,25.1596343 8.20883175,23.781072 7.01508222,21.8115549 L7.01508222,32.6443966 L0.00293510116,32.6443966 L0.00293510116,0.492379262 L7.01508222,0.492379262 L7.01508222,3.34807941 C8.20883175,1.37856236 11.1429213,3.55271368e-15 14.2263552,3.55271368e-15 C20.5918461,3.55271368e-15 25.5639587,5.56403501 25.5639587,12.5554222" id="Fill-6" fill="#FFFFFF"></path>
                <ellipse id="Oval" fill="#FE7B6C" cx="30.455691" cy="20.6386598" rx="4.47834646" ry="4.46712795"></ellipse>
            </g>
        </g>
    </g>
</svg>
